packages/core/src/svgs/tokens/mono/RAVEN.svg

<svg width="24" height="24" viewBox="0 0 24 24" fill="none" xmlns="http://www.w3.org/2000/svg">
<path d="M17.5149 9.617C17.773 9.95242 18.1142 10.2145 18.5049 10.3771C18.545 10.397 18.545 10.4071 18.4999 10.4121C17.9999 10.4821 17.5199 10.4371 17.0498 10.277C16.9499 10.242 16.9399 10.2621 17.0148 10.3371C17.2049 10.5171 17.43 10.6421 17.6849 10.7171C17.7999 10.7471 17.7949 10.772 17.6849 10.7971C17.1699 10.8971 16.6899 10.8521 16.2498 10.6771C16.2049 10.6571 16.1899 10.672 16.1999 10.7171C16.2498 10.8571 16.5349 10.9721 16.6549 11.0271C16.7099 11.057 16.7049 11.0771 16.6449 11.0771C16.3198 11.122 15.9749 11.092 15.6148 10.9921C15.5548 10.977 15.5498 10.9921 15.5898 11.0321C15.6749 11.122 15.7898 11.192 15.9149 11.2471C15.9749 11.2721 15.9749 11.292 15.9149 11.3071C15.2298 11.4871 14.3648 11.5971 13.7549 11.2371C13.7248 11.2171 13.6998 11.222 13.6799 11.2521C13.4272 11.6405 13.2821 12.0892 13.2598 12.552C13.2398 12.8021 13.2898 13.0521 13.4098 13.3021C13.6248 13.7771 13.8949 14.2471 14.2198 14.7021C14.4449 15.0171 14.6098 15.3871 14.8049 15.7322C15.0449 16.1621 15.0548 16.6121 14.7249 17.0072C14.6999 17.0372 14.6848 17.0321 14.6748 16.9971C14.5095 16.2633 14.2454 15.5551 13.8899 14.8922C13.8899 14.8771 13.8748 14.8771 13.8648 14.8822L13.8398 14.8922C13.9813 15.2625 14.128 15.6309 14.2799 15.9972C14.5549 16.6471 14.4598 17.1472 13.8698 17.5221C13.8348 17.5472 13.8199 17.5372 13.8199 17.4972C13.7532 16.6884 13.5817 15.8917 13.3098 15.1272H13.2649L13.2598 15.1421C13.3498 15.4722 13.3798 15.8022 13.4749 16.1422C13.6548 16.7871 13.7048 17.3922 13.0398 17.8122C13.0048 17.8323 12.9849 17.8272 12.9748 17.7872C12.9282 17.623 12.8914 17.4559 12.8648 17.2872C12.769 16.6639 12.6857 16.0388 12.6148 15.4122H12.5598C12.6098 15.9622 12.6298 16.5022 12.6198 17.0372C12.6253 17.2309 12.5767 17.4225 12.4796 17.5903C12.3825 17.7581 12.2406 17.8955 12.0698 17.9872C12.0558 17.9942 12.0404 17.9979 12.0248 17.9979C12.0092 17.9979 11.9938 17.9942 11.9798 17.9872C11.6297 17.8072 11.4398 17.4772 11.4248 16.9971C11.4061 16.4794 11.4312 15.9608 11.4998 15.4472C11.4981 15.4405 11.495 15.4345 11.4907 15.4293C11.4864 15.4241 11.4809 15.42 11.4748 15.4172L11.4598 15.4122H11.4348C11.4248 15.4072 11.4197 15.4122 11.4197 15.4221C11.3398 16.1872 11.2698 16.7722 11.2047 17.1721C11.1747 17.3722 11.1248 17.5722 11.0548 17.7872C11.0448 17.8222 11.0248 17.8323 10.9947 17.8072C10.5847 17.5221 10.4047 17.1822 10.4598 16.7871C10.5418 16.2369 10.6519 15.6911 10.7897 15.1521L10.7648 15.1372C10.7618 15.1354 10.7586 15.1343 10.7552 15.1338C10.7518 15.1333 10.7484 15.1337 10.7452 15.1346C10.7418 15.1356 10.7387 15.1371 10.7362 15.1393C10.7335 15.1414 10.7313 15.1441 10.7298 15.1471C10.4544 15.9 10.2861 16.6876 10.2297 17.4871C10.2297 17.5372 10.2098 17.5472 10.1647 17.5221C9.77972 17.2622 9.59475 16.9422 9.62474 16.5722C9.63474 16.3721 9.69969 16.1422 9.80971 15.8871C9.95986 15.5446 10.0999 15.1979 10.2297 14.8472L10.2048 14.8321C10.1947 14.8321 10.1897 14.8321 10.1848 14.8421C9.98471 15.2221 9.79979 15.6172 9.63474 16.0422C9.51475 16.3422 9.45474 16.6572 9.38474 16.9772C9.36974 17.0372 9.34474 17.0422 9.30474 16.9922C8.79973 16.3222 9.18474 15.8871 9.48474 15.2672C9.55103 15.1281 9.62793 14.9944 9.71474 14.8671C10.0934 14.3472 10.4169 13.7892 10.6797 13.2021C10.9398 12.5821 10.7197 11.8271 10.3898 11.2871C10.3548 11.222 10.2997 11.2071 10.2347 11.2421C9.60974 11.5921 8.80472 11.4821 8.11971 11.3221C8.02471 11.297 8.01971 11.2721 8.11971 11.232C8.22471 11.187 8.31972 11.122 8.39972 11.0421C8.44972 10.9921 8.43972 10.977 8.37471 10.9921C8.07471 11.0771 7.7597 11.1121 7.4347 11.092C7.2847 11.087 7.2847 11.052 7.41969 10.9921C7.5697 10.9271 7.6897 10.837 7.7947 10.7221C7.84471 10.667 7.83471 10.6521 7.76471 10.672C7.27969 10.8571 6.78968 10.8971 6.29967 10.7921C6.20467 10.767 6.20467 10.742 6.29967 10.7221C6.5718 10.6533 6.81831 10.5074 7.00968 10.3021C7.05468 10.257 7.04468 10.247 6.98468 10.2671C6.52967 10.427 6.03467 10.4771 5.50465 10.417C5.45466 10.4121 5.45466 10.397 5.49966 10.3771C5.85966 10.2271 6.17467 9.99699 6.43468 9.69703C6.54468 9.57698 6.52468 9.55703 6.38468 9.63706C6.06412 9.82957 5.70722 9.95382 5.33639 10.002C4.96555 10.0502 4.58875 10.0213 4.22963 9.91707C4.18963 9.90202 4.18963 9.89199 4.22963 9.88709C4.93965 9.78698 5.54965 9.57208 6.01467 8.992C6.06466 8.92702 6.05467 8.91197 5.97967 8.94207C4.92965 9.37701 3.51961 9.47699 2.51959 8.83706C2.4446 8.78701 2.44959 8.76706 2.53959 8.77698C3.38962 8.887 4.19963 8.83706 4.97465 8.627C5.23965 8.562 5.44465 8.467 5.59466 8.352C5.64465 8.31201 5.63466 8.297 5.57465 8.302C4.92464 8.387 4.33464 8.442 3.69962 8.302C3.07026 8.17115 2.49713 7.8479 2.05959 7.37698C1.96458 7.27698 1.98458 7.25698 2.10958 7.30698C3.1346 7.74198 4.37963 7.92199 5.49465 7.71199C5.70466 7.67198 5.70466 7.64199 5.48966 7.62199C4.79464 7.56199 3.92962 7.27198 3.49961 6.72197C3.39961 6.59197 3.30461 6.46196 3.2296 6.33196C3.1696 6.23196 3.18961 6.22196 3.27961 6.28696C3.6837 6.58555 4.14798 6.79257 4.64016 6.89359C5.13235 6.99461 5.64063 6.98724 6.12967 6.87197C6.22967 6.85197 6.22967 6.82197 6.14466 6.78197C5.84372 6.63968 5.59778 6.40254 5.44465 6.10695C5.39466 6.00695 5.41966 5.98195 5.51465 6.03195C6.2122 6.40651 6.97363 6.64732 7.7597 6.74197C8.22972 6.80197 8.49472 7.22198 8.85473 7.47199C9.22473 7.73699 9.60474 7.94199 9.98973 8.08199C10.4697 8.262 10.8098 8.09199 11.0098 7.57699C11.1003 7.30232 11.2502 7.051 11.449 6.84097C11.6478 6.63094 11.8905 6.46739 12.1598 6.36196C12.3947 6.27696 12.6848 6.21196 13.0398 6.18696C13.3498 6.16196 13.6598 6.12195 13.9748 6.07695C14.0349 6.06695 14.0398 6.08196 13.9949 6.12696C13.6992 6.35002 13.4322 6.60864 13.1998 6.89697C12.9248 7.26198 12.9198 7.62199 13.1949 7.97699C13.3699 8.207 13.7648 8.177 14.0048 8.087C14.6361 7.85154 15.2103 7.48517 15.6898 7.01197C15.8298 6.88197 16.0099 6.77197 16.1999 6.74697C17.0157 6.65301 17.8063 6.40529 18.5299 6.01695C18.585 5.98695 18.5999 6.00196 18.58 6.06195C18.4395 6.37384 18.1908 6.62429 17.8799 6.76697C17.7699 6.81697 17.78 6.85697 17.8949 6.88197C18.7649 7.05697 19.565 6.94698 20.2799 6.55696C20.4449 6.46697 20.595 6.37196 20.755 6.27195C20.805 6.24196 20.81 6.24696 20.785 6.29696C20.6653 6.54464 20.497 6.76571 20.29 6.94697C19.7866 7.33993 19.1771 7.57328 18.5399 7.61699C18.3099 7.64199 18.3099 7.67198 18.5399 7.71699C21.16 8.217 22 7.28697 22 7.29698C21.86 7.46698 21.7 7.62199 21.535 7.74699C20.8635 8.23189 20.0401 8.45907 19.215 8.387C18.9549 8.372 18.6949 8.342 18.4299 8.302C18.3649 8.292 18.3599 8.307 18.41 8.352C18.5349 8.45201 18.6699 8.51701 18.8099 8.562C19.6799 8.83706 20.575 8.90707 21.49 8.77196C21.56 8.76205 21.5649 8.77698 21.505 8.82201C20.525 9.47198 19.0849 9.38203 18.0549 8.95198C17.955 8.91197 17.9399 8.93203 18.0049 9.01697C18.4599 9.56706 19.065 9.78208 19.7549 9.88709C19.805 9.89199 19.81 9.90704 19.7549 9.92209C19.3824 10.0256 18.9923 10.0497 18.6098 9.99291C18.2274 9.93609 17.8612 9.79947 17.535 9.59203C17.5149 9.57698 17.4899 9.60206 17.5099 9.617H17.5149Z" fill="white"/>
</svg>

<svg xmlns="http://www.w3.org/2000/svg" width="24" height="24" fill="none" viewBox="0 0 24 24">
    <path fill="#fff" d="M17.515 9.617c.258.335.6.597.99.76q.061.029-.005.035c-.5.07-.98.025-1.45-.135q-.149-.053-.035.06.286.269.67.38c.115.03.11.055 0 .08-.515.1-.995.055-1.435-.12q-.066-.029-.05.04c.05.14.335.255.455.31.055.03.05.05-.01.05q-.489.066-1.03-.085c-.06-.015-.065 0-.025.04a1 1 0 0 0 .325.215q.09.038 0 .06c-.685.18-1.55.29-2.16-.07q-.045-.03-.075.015a2.6 2.6 0 0 0-.42 1.3q-.03.375.15.75c.215.475.485.945.81 1.4.225.315.39.685.585 1.03.24.43.25.88-.08 1.275q-.036.044-.05-.01a8.3 8.3 0 0 0-.785-2.105c0-.015-.015-.015-.025-.01l-.025.01q.212.556.44 1.105c.275.65.18 1.15-.41 1.525q-.051.036-.05-.025a9.4 9.4 0 0 0-.51-2.37h-.045l-.005.015c.09.33.12.66.215 1 .18.645.23 1.25-.435 1.67-.035.02-.055.015-.065-.025a4 4 0 0 1-.11-.5 48 48 0 0 1-.25-1.875h-.055q.075.824.06 1.625a1.05 1.05 0 0 1-.55.95.1.1 0 0 1-.09 0c-.35-.18-.54-.51-.555-.99a9 9 0 0 1 .075-1.55.05.05 0 0 0-.025-.03l-.015-.005h-.025q-.015-.006-.015.01-.119 1.149-.215 1.75c-.03.2-.08.4-.15.615-.01.035-.03.045-.06.02q-.616-.428-.535-1.02.123-.826.33-1.635l-.025-.015-.01-.003h-.01l-.009.005-.006.008a8.6 8.6 0 0 0-.5 2.34q.001.074-.065.035c-.385-.26-.57-.58-.54-.95.01-.2.075-.43.185-.685q.225-.514.42-1.04l-.025-.015c-.01 0-.015 0-.02.01-.2.38-.385.775-.55 1.2-.12.3-.18.615-.25.935q-.021.09-.08.015c-.505-.67-.12-1.105.18-1.725q.1-.209.23-.4a9.3 9.3 0 0 0 .965-1.665c.26-.62.04-1.375-.29-1.915-.035-.065-.09-.08-.155-.045-.625.35-1.43.24-2.115.08-.095-.025-.1-.05 0-.09q.159-.069.28-.19.074-.074-.025-.05a2.8 2.8 0 0 1-.94.1c-.15-.005-.15-.04-.015-.1.15-.065.27-.155.375-.27q.075-.081-.03-.05a2.54 2.54 0 0 1-1.465.12q-.142-.039 0-.07a1.46 1.46 0 0 0 .71-.42q.066-.066-.025-.035-.684.24-1.48.15-.074-.009-.005-.04c.36-.15.675-.38.935-.68.11-.12.09-.14-.05-.06a2.72 2.72 0 0 1-2.155.28q-.06-.023 0-.03c.71-.1 1.32-.315 1.785-.895q.076-.096-.035-.05c-1.05.435-2.46.535-3.46-.105q-.114-.075.02-.06 1.274.165 2.435-.15c.265-.065.47-.16.62-.275.05-.04.04-.055-.02-.05-.65.085-1.24.14-1.875 0a3.1 3.1 0 0 1-1.64-.925c-.095-.1-.075-.12.05-.07 1.025.435 2.27.615 3.385.405q.316-.06-.005-.09c-.695-.06-1.56-.35-1.99-.9a4 4 0 0 1-.27-.39c-.06-.1-.04-.11.05-.045a3.46 3.46 0 0 0 2.85.585c.1-.02.1-.05.015-.09a1.52 1.52 0 0 1-.7-.675q-.074-.15.07-.075a6.4 6.4 0 0 0 2.245.71c.47.06.735.48 1.095.73q.556.399 1.135.61.72.269 1.02-.505a1.97 1.97 0 0 1 1.15-1.215c.235-.085.525-.15.88-.175.31-.025.62-.065.935-.11q.089-.016.02.05a4.5 4.5 0 0 0-.795.77c-.275.365-.28.725-.005 1.08.175.23.57.2.81.11a4.8 4.8 0 0 0 1.685-1.075.97.97 0 0 1 .51-.265 6.5 6.5 0 0 0 2.33-.73q.081-.045.05.045c-.14.312-.39.562-.7.705-.11.05-.1.09.015.115.87.175 1.67.065 2.385-.325.165-.09.315-.185.475-.285.05-.03.055-.025.03.025-.12.248-.288.469-.495.65a3.2 3.2 0 0 1-1.75.67c-.23.025-.23.055 0 .1 2.62.5 3.46-.43 3.46-.42-.14.17-.3.325-.465.45a3.45 3.45 0 0 1-2.32.64 9 9 0 0 1-.785-.085q-.096-.016-.02.05c.125.1.26.165.4.21q1.306.412 2.68.21.105-.016.015.05c-.98.65-2.42.56-3.45.13q-.149-.061-.05.065c.455.55 1.06.765 1.75.87.05.005.055.02 0 .035a2.76 2.76 0 0 1-2.22-.33c-.02-.015-.045.01-.025.025z"/>
</svg>
